src/assets/instagram.svg

<svg width="21" height="20" viewBox="0 0 21 20" fill="none" xmlns="http://www.w3.org/2000/svg">
<path d="M10.501 7C9.70535 7 8.94229 7.31607 8.37968 7.87868C7.81707 8.44129 7.501 9.20435 7.501 10C7.501 10.7956 7.81707 11.5587 8.37968 12.1213C8.94229 12.6839 9.70535 13 10.501 13C11.2966 13 12.0597 12.6839 12.6223 12.1213C13.1849 11.5587 13.501 10.7956 13.501 10C13.501 9.20435 13.1849 8.44129 12.6223 7.87868C12.0597 7.31607 11.2966 7 10.501 7ZM10.501 5C11.8271 5 13.0989 5.52678 14.0365 6.46447C14.9742 7.40215 15.501 8.67392 15.501 10C15.501 11.3261 14.9742 12.5979 14.0365 13.5355C13.0989 14.4732 11.8271 15 10.501 15C9.17492 15 7.90315 14.4732 6.96547 13.5355C6.02778 12.5979 5.501 11.3261 5.501 10C5.501 8.67392 6.02778 7.40215 6.96547 6.46447C7.90315 5.52678 9.17492 5 10.501 5ZM17.001 4.75C17.001 5.08152 16.8693 5.39946 16.6349 5.63388C16.4005 5.8683 16.0825 6 15.751 6C15.4195 6 15.1015 5.8683 14.8671 5.63388C14.6327 5.39946 14.501 5.08152 14.501 4.75C14.501 4.41848 14.6327 4.10054 14.8671 3.86612C15.1015 3.6317 15.4195 3.5 15.751 3.5C16.0825 3.5 16.4005 3.6317 16.6349 3.86612C16.8693 4.10054 17.001 4.41848 17.001 4.75ZM10.501 2C8.027 2 7.623 2.007 6.472 2.058C5.688 2.095 5.162 2.2 4.674 2.39C4.26562 2.53994 3.89641 2.78026 3.594 3.093C3.28101 3.3954 3.04035 3.76458 2.89 4.173C2.7 4.663 2.595 5.188 2.559 5.971C2.507 7.075 2.5 7.461 2.5 10C2.5 12.475 2.507 12.878 2.558 14.029C2.595 14.812 2.7 15.339 2.889 15.826C3.059 16.261 3.259 16.574 3.591 16.906C3.928 17.242 4.241 17.443 4.671 17.609C5.165 17.8 5.691 17.906 6.471 17.942C7.575 17.994 7.961 18 10.5 18C12.975 18 13.378 17.993 14.529 17.942C15.311 17.905 15.837 17.8 16.326 17.611C16.734 17.4603 17.1031 17.2201 17.406 16.908C17.743 16.572 17.944 16.259 18.11 15.828C18.3 15.336 18.406 14.81 18.442 14.028C18.494 12.925 18.5 12.538 18.5 10C18.5 7.526 18.493 7.122 18.442 5.971C18.405 5.189 18.299 4.661 18.11 4.173C17.9593 3.76502 17.719 3.39598 17.407 3.093C17.1047 2.77985 16.7355 2.53917 16.327 2.389C15.837 2.199 15.311 2.094 14.529 2.058C13.426 2.006 13.04 2 10.5 2M10.5 0C13.217 0 13.556 0.00999994 14.623 0.0599999C15.687 0.11 16.413 0.277 17.05 0.525C17.71 0.779 18.266 1.123 18.822 1.678C19.3305 2.1779 19.724 2.78259 19.975 3.45C20.222 4.087 20.39 4.813 20.44 5.878C20.487 6.944 20.5 7.283 20.5 10C20.5 12.717 20.49 13.056 20.44 14.122C20.39 15.187 20.222 15.912 19.975 16.55C19.7246 17.2178 19.3311 17.8226 18.822 18.322C18.322 18.8303 17.7173 19.2238 17.05 19.475C16.413 19.722 15.687 19.89 14.623 19.94C13.556 19.987 13.217 20 10.5 20C7.783 20 7.444 19.99 6.377 19.94C5.313 19.89 4.588 19.722 3.95 19.475C3.28233 19.2245 2.67753 18.8309 2.178 18.322C1.66943 17.8222 1.27596 17.2175 1.025 16.55C0.777 15.913 0.61 15.187 0.56 14.122C0.512 13.056 0.5 12.717 0.5 10C0.5 7.283 0.51 6.944 0.56 5.878C0.61 4.813 0.777 4.088 1.025 3.45C1.27524 2.78218 1.6688 2.17732 2.178 1.678C2.67767 1.16923 3.28243 0.775729 3.95 0.525C4.587 0.277 5.312 0.11 6.377 0.0599999C7.445 0.0129999 7.784 0 10.501 0" fill="white"/>
</svg>

<svg xmlns="http://www.w3.org/2000/svg" width="21" height="20" fill="none"><path fill="#fff" d="M10.501 7a3 3 0 1 0 0 6 3 3 0 0 0 0-6m0-2a5 5 0 1 1 0 10 5 5 0 0 1 0-10m6.5-.25a1.25 1.25 0 1 1-2.5 0 1.25 1.25 0 0 1 2.5 0M10.501 2c-2.474 0-2.878.007-4.029.058-.784.037-1.31.142-1.798.332-.408.15-.778.39-1.08.703a2.9 2.9 0 0 0-.704 1.08c-.19.49-.295 1.015-.331 1.798C2.507 7.075 2.5 7.461 2.5 10c0 2.475.007 2.878.058 4.029.037.783.142 1.31.331 1.797.17.435.37.748.702 1.08.337.336.65.537 1.08.703.494.191 1.02.297 1.8.333 1.104.052 1.49.058 4.029.058 2.475 0 2.878-.007 4.029-.058.782-.037 1.308-.142 1.797-.331a2.9 2.9 0 0 0 1.08-.703c.337-.336.538-.649.704-1.08.19-.492.296-1.018.332-1.8.052-1.103.058-1.49.058-4.028 0-2.474-.007-2.878-.058-4.029-.037-.782-.143-1.31-.332-1.798a2.9 2.9 0 0 0-.703-1.08 2.9 2.9 0 0 0-1.08-.704c-.49-.19-1.016-.295-1.798-.331C13.426 2.006 13.04 2 10.5 2m0-2c2.717 0 3.056.01 4.123.06 1.064.05 1.79.217 2.427.465.66.254 1.216.598 1.772 1.153.509.5.902 1.105 1.153 1.772.247.637.415 1.363.465 2.428.047 1.066.06 1.405.06 4.122s-.01 3.056-.06 4.122-.218 1.79-.465 2.428a4.9 4.9 0 0 1-1.153 1.772c-.5.508-1.105.902-1.772 1.153-.637.247-1.363.415-2.427.465-1.067.047-1.406.06-4.123.06s-3.056-.01-4.123-.06c-1.064-.05-1.789-.218-2.427-.465a4.9 4.9 0 0 1-1.772-1.153 4.9 4.9 0 0 1-1.153-1.772C.777 15.913.61 15.187.56 14.122.512 13.056.5 12.717.5 10s.01-3.056.06-4.122.217-1.79.465-2.428a4.9 4.9 0 0 1 1.153-1.772A4.9 4.9 0 0 1 3.95.525C4.587.277 5.312.11 6.377.06 7.445.013 7.784 0 10.501 0"/></svg>
